X:1
T:Sleep, My Savior, Sleep
T:Sleep, My Savior, Sleep
T:Arr. by  R. F. Smith from Richard Chope, 1894
T:Sabine Baring-Gould, 1894
T:Public Domain Courtesy of the Cyber Hymnal™
C:Arr. by  R. F. Smith from Richard Chope, 1894
Z:Public Domain
Z:Courtesy of the Cyber Hymnal™
%%score ( 1 2 ) ( 3 4 )
L:1/8
Q:1/4=80
M:2/4
K:Ab
V:1 treble 
V:2 treble 
V:3 bass 
V:4 bass 
V:1
 [Ac][Ac] [GB][GB] | [FA]2 z2 | [Fd][Fd] [Ac][Ac] | [GB]2 z2 | [Ac][GB] [Ac][Gd] | %5
w: 1.~Sleep, my Sav- ior,|sleep,|On Thy bed of|hay,|An- gels in the|
w: 2.~Sleep, my Sav- ior,|sleep|On Thy bed of|hay,|Ere the mourn- ing|
w: 3.~Sleep, my Sav- ior,|sleep|Sweet on Mar- y’s|breast,|Now the shep- herds|
w: 4.~Sleep, my Sav- ior,|sleep|Sweet on Mar- y’s|breast.|Cru- ci- fied, with|
 [Ae]>[Af] [Ae][Gd] | [Ac][GB] [Ac][Ad] | [Ae]>[Af] [Ae][Gd] | [Ac][Ac] [AB][GB] | A2 z2 |] %10
w: span- gled hea- ven|Sing their glad- some|Christ- mas car- ols|Till the dawn of|day.|
w: an- gel com- eth|To the moon- lit|ol- ive gar- den|Wip- ing tears a-|way.|
w: kneel a- dor- ing,|Now the mo- ther’s|heart is joy- ous,|Take a hap- py|rest.|
w: wounds and bruis- es,|Bleed- ing, pur- ple,|stained, dis- fig- ured,|One day Thou wilt|rest.|
V:2
 x4 | x4 | x4 | x4 | x4 | x4 | x4 | x4 | x4 | A2 x2 |] %10
V:3
 [A,E][A,E] [E,D][E,D] | [F,C]2 z2 | [D,D][D,D] [A,E][A,E] | [E,E]2 z2 | [A,E][E,E] [A,E][A,E] | %5
 [CE]>D [CE][B,E] | [A,E][E,E] [A,E][F,D] | [E,C]>[D,D] [E,C][E,B,] | A,[A,E] [D,F] (E/D/) | %9
 [A,,C]2 z2 |] %10
V:4
 x4 | x4 | x4 | x4 | x4 | x3/2 D/ x2 | x4 | x4 | A, x E, x | x4 |] %10

